static/assets/icons/video.svg

<svg height="24" viewBox="0 0 24 24" width="24" xmlns="http://www.w3.org/2000/svg"><path d="m22.5 4c.2761424 0 .5.22385763.5.5v15c0 .2761424-.2238576.5-.5.5h-21c-.27614237 0-.5-.2238576-.5-.5v-15c0-.27614237.22385763-.5.5-.5zm-3.5 1h-14v14h14zm-15 12h-2v2h2zm18 0h-2v2h2zm-18-3h-2v2h2zm18 0h-2v2h2zm-11.7427521-5.42874646 5 2.99999996c.3236695.1942017.3236695.6632913 0 .857493l-5 3c-.33326228.1999573-.7572479-.0400993-.7572479-.4287465v-6c0-.38864724.42398562-.62870382.7572479-.42874646zm.2427521 1.31184165v4.23380961l3.5281747-2.1169048zm-6.5 1.11690481h-2v2h2zm18 0h-2v2h2zm-18-3h-2v2h2zm18 0h-2v2h2zm0-3h-2v2h2zm-18 0h-2v2h2z" fill="#414b5d"/></svg>

<?xml version="1.0" encoding="UTF-8"?>
<svg width="24px" height="24px" viewBox="0 0 24 24" version="1.1" xmlns="http://www.w3.org/2000/svg" xmlns:xlink="http://www.w3.org/1999/xlink">
    <!-- Generator: Sketch 59.1 (86144) - https://sketch.com -->
    <title>Icons/Video</title>
    <desc>Created with Sketch.</desc>
    <g id="Icons/Video" stroke="none" stroke-width="1" fill="none" fill-rule="evenodd">
        <path d="M22.5,4 C22.7761424,4 23,4.22385763 23,4.5 L23,19.5 C23,19.7761424 22.7761424,20 22.5,20 L1.5,20 C1.22385763,20 1,19.7761424 1,19.5 L1,4.5 C1,4.22385763 1.22385763,4 1.5,4 L22.5,4 Z M19,5 L5,5 L5,19 L19,19 L19,5 Z M4,17 L2,17 L2,19 L4,19 L4,17 Z M22,17 L20,17 L20,19 L22,19 L22,17 Z M4,14 L2,14 L2,16 L4,16 L4,14 Z M22,14 L20,14 L20,16 L22,16 L22,14 Z M10.2572479,8.57125354 L15.2572479,11.5712535 C15.5809174,11.7654552 15.5809174,12.2345448 15.2572479,12.4287465 L10.2572479,15.4287465 C9.92398562,15.6287038 9.5,15.3886472 9.5,15 L9.5,9 C9.5,8.61135276 9.92398562,8.37129618 10.2572479,8.57125354 Z M10.5,9.88309519 L10.5,14.1169048 L14.0281747,12 L10.5,9.88309519 Z M4,11 L2,11 L2,13 L4,13 L4,11 Z M22,11 L20,11 L20,13 L22,13 L22,11 Z M4,8 L2,8 L2,10 L4,10 L4,8 Z M22,8 L20,8 L20,10 L22,10 L22,8 Z M22,5 L20,5 L20,7 L22,7 L22,5 Z M4,5 L2,5 L2,7 L4,7 L4,5 Z" id="Shape" fill="#414B5D" fill-rule="nonzero"></path>
    </g>
</svg>
